resources/svg/minor-external.svg

<svg xmlns="http://www.w3.org/2000/svg" viewBox="0 0 20 20" fill="currentColor"><path d="M11 4a1 1 0 0 1 1-1h4a1 1 0 0 1 1 1v4a1 1 0 1 1-2 0v-1.586l-5.293 5.293a1 1 0 0 1-1.414-1.414l5.293-5.293h-1.586a1 1 0 0 1-1-1zm-8 2.5a1.5 1.5 0 0 1 1.5-1.5h3.5a1 1 0 0 1 0 2h-3v8h8v-3a1 1 0 1 1 2 0v3.5a1.5 1.5 0 0 1-1.5 1.5h-9a1.5 1.5 0 0 1-1.5-1.5v-9z"/></svg>

<svg xmlns="http://www.w3.org/2000/svg" viewBox="0 0 20 20" fill="currentColor"><path d="M11 4a1 1 0 0 1 1-1h4a1 1 0 0 1 1 1v4a1 1 0 1 1-2 0V6.414l-5.293 5.293a1 1 0 0 1-1.414-1.414L13.586 5H12a1 1 0 0 1-1-1zM3 6.5A1.5 1.5 0 0 1 4.5 5H8a1 1 0 0 1 0 2H5v8h8v-3a1 1 0 1 1 2 0v3.5a1.5 1.5 0 0 1-1.5 1.5h-9A1.5 1.5 0 0 1 3 15.5v-9z"/></svg>
